X:1
T:When the King of Kings Comes
T:When the King of Kings Comes
T:Harmonized by Joseph P. Powell, 1875
T:Anonymous, 1834
T:Public Domain Courtesy of the Cyber Hymnal™
T:Public Domain Courtesy of the Cyber Hymnal™
C:Harmonized by Joseph P. Powell, 1875
Z:Public Domain
Z:Courtesy of the Cyber Hymnal™
%%score ( 1 2 ) ( 3 4 )
L:1/8
Q:1/4=100
M:6/8
K:Bb
V:1 treble 
V:2 treble 
V:3 bass 
V:4 bass 
V:1
 [DB]2 [DB] (BA)[DB] | (c2 d) [DB]2 z | [Fd]2 [Fd] ([Ec][DB])[Ec] | [DF]3 [DF]2 z | %4
w: 1.~When the King * of|kings * comes,|When the Lord * of|lords comes,|
w: 2.~When the trump * of|God * calls,|When the last * of|foes falls;|
w: 3.~When the foe’s * dis-|tress * comes,|When the Chur- * ch’s|rest comes;|
w: 4.~When the world’s * course|is * run,|When the judgment * is|be- gun!|
w: 5.~When our Lord * in|clouds * comes,|When He with * great|pow’r comes,|
 [DB]2 [DB] (BA)[DB] | [Fc]2 [Fd] [DB]2 z | [Fd]2 [Fd] (cB)[Ec] | [DB]3 !fermata![DB]2 [Fd] | %8
w: We shall have * a|joy- ful day,|When the King * of|kings comes; To|
w: We shall have * a|joy- ful day,|When the King * of|kings comes; To|
w: We shall have * a|joy- ful day,|When the King * of|kings comes; To|
w: We shall have * a|joy- ful day,|When the King * of|kings comes; To|
w: We shall have * a|joy- ful day,|When the King * of|kings comes; To|
 [Ff]2 [Fd] (dc)[DB] | [Fd]2 [Ec] [DB]2 [DB] | [Fd]2 [Fd] ([Ec][DB])[Ec] | [DF]2 [DF] [DF]2 [DF] | %12
w: see the na- * tions|brok- en down, And|king- doms once * of|great re- nown, And|
w: see the saints * raised|from the dead, And|all to- ge- * ther|g- a- thered, And|
w: see the New * Je-|ru- sa- lem, Its|full- ness and * its|match- less frame, Sur-|
w: see the sons * of|God well known, All|spot- less to * their|Fa- ther shown, And|
w: see all things * by|Him re- stored, And|God Him- self * a-|lone a- dored, By|
 [DB]2 [DB] (BA)[DB] | [Fc]2 [Fd] [DB]2 z | [Fd]2 [Fd] (cB)[Ec] | [DB]3 !fermata![DB]2 |] %16
w: saints now suffer- * ing|wear the crown,|When the King * of|kings comes.|
w: made like to * their|glor- ious Head,|When the King * of|kings comes.|
w: pass- ing all * re-|port and fame,|When the King * of|kings comes.|
w: Je- sus all * His|breth- ren own,|When the King * of|kings comes.|
w: all the saints * with|one ac- cord,|When the King * of|kings comes.|
V:2
 x3 D2 x | F3 x3 | x6 | x6 | x3 D2 x | x6 | x3 E2 x | x6 | x3 F2 x | x6 | x6 | x6 | x3 D2 x | x6 | %14
 x3 E2 x | x5 |] %16
V:3
 [B,,B,]2 [B,,B,] [B,,B,]2 [B,,B,] | (A,2 B,) [B,,F,]2 z | [B,,B,]2 [B,,B,] (A,G,)[F,A,] | %3
 B,3 [B,,B,]2 z | [B,,F,]2 [B,,F,] [B,,F,]2 [B,,F,] | [F,A,]2 [F,B,] [B,,F,]2 z | %6
 B,2 B, (A,G,)[F,A,] | [B,,B,]3 !fermata![B,,B,]2 B, | [B,D]2 B, B,2 [F,B,] | %9
 B,2 [F,A,] [B,,B,]2 [B,,B,] | B,2 B, (A,G,)[F,A,] | [B,,B,]2 [B,,B,] [B,,B,]2 [B,,B,] | %12
 [B,,F,]2 [B,,F,] [B,,F,]2 [B,,F,] | [F,A,]2 [F,B,] [B,,F,]2 z | B,2 B, (A,G,)[F,A,] | %15
 [B,,B,]3 !fermata![B,,B,]2 |] %16
V:4
 x6 | F,3 x3 | x3 F,2 x | B,3 x3 | x6 | x6 | B,2 B, F,2 x | x5 B, | x2 B, B,2 x | B,2 x4 | %10
 B,2 B, F,2 x | x6 | x6 | x6 | B,2 B, F,2 x | x5 |] %16

